X:1
T:All to Christ I Owe
T:All to Christ I Owe
T:Asa Hull & John Grape
T:Elvina Hall, 1865 & Fanny Crosby, 1869
T:Public Domain Courtesy of the Cyber Hymnal™
C:Asa Hull & John Grape
Z:Public Domain
Z:Courtesy of the Cyber Hymnal™
%%score ( 1 2 ) ( 3 4 )
L:1/8
Q:1/4=98
M:3/4
K:D
V:1 treble 
V:2 treble 
V:3 bass 
V:4 bass 
V:1
 (DF) | [FA]3 [GB] [FA][DF] | D4 D2 | [CE]3 [CE] D[CE] | [DF]4 (DF) | [FA]3 [GB] [FA][DF] | D4 D2 | %7
w: 1.~Re- *|deem- ing work is|done; The|debt of sin is|paid; The *|pre- cious Lamb of|God, My|
w: 2.~I’ll *|bow at Je- sus’|feet, And|plead His grace so|free; I’ll *|wash me in His|blood, That|
w: 3.~Yes, *|Je- sus paid it|all, To|Him the glo- ry|be; His *|love my par- don|speaks, And|
 [DF]3 [DG] [DF][CE] | D6 ||"^Refrain" [FA]3 [GB] [FA][DF] | [Fd]6 | [FA]3 [GB] [FA][DF] | [CE]6 | %13
w: sac- ri- fice is|made.|||||
w: blood was shed for|me.|Je- sus paid it|all;|All to Him I|owe!|
w: grace has set me|free.|||||
 [FA]3 [GB] [FA][DF] | [Fd][Ac] !fermata![GB]2 [Ed]2 | [DF]3 [EG] [DF][CE] | D4 |] %17
w: ||||
w: Sin had left a|crim- son stain; He|washed it white as|snow.|
w: ||||
V:2
 D2 | x6 | D4 D2 | x4 D x | x4 D2 | x6 | D4 D2 | x6 | D6 || x6 | x6 | x6 | x6 | x6 | x6 | x6 | %16
 D4 |] %17
V:3
 (F,A,) | [D,D]3 [D,D] [D,D][D,A,] | [D,F,]4 [D,F,]2 | [A,,A,]3 [A,,G,] [B,,F,][A,,A,] | %4
 [D,A,]4 (F,A,) | [D,D]3 [D,D] [D,D][D,A,] | [D,F,]4 [D,F,]2 | [D,A,]3 [G,,B,] [A,,A,][A,,G,] | %8
 [D,F,]6 || [D,D]3 [D,D] [D,D][D,A,] | [D,A,]6 | [D,D]3 [D,D] [D,D][F,A,] | A,6 | %13
 [D,D]3 [D,D] [D,D][D,A,] | [D,A,][F,D] !fermata![G,D]2 [G,B,]2 | A,3 A, [A,,A,][A,,G,] | %16
 [D,F,]4 |] %17
V:4
 D,2 | x6 | x6 | x6 | x4 D,2 | x6 | x6 | x6 | x6 || x6 | x6 | x6 | A,6 | x6 | x6 | A,3 A, x2 | %16
 x4 |] %17

